!!!COM: Stadler, Maximilian
!!!CDT: 1748///-1833///
!!!COA: Haydn, Joseph
!!!OTL@@IT: Gioco filarmonico
!!!OTL@EN: Philharmonic Joke
!!!OTA@@IT: o sia maniera facile per comporre un infinito numero de minuetti e trio anche senza sapere il contrapunto
!!!OTA@EN: or the Art of Composing an Infinite Number of Minutes Without the Least Knowledge of Counterpoint
!!!PDT: 1781///
!!!PPR: Artaria
!!!SML: Gesellschaft der Musikfreundes, Vienna
!!!PPR2: Luigi Marescalchi
!!!PPP2: Napoli
!!!PDT2: 1790///
**kern	**kern	**kern
*Icello	*Ivioln	*Ivioln
*>[A,A,B,B,A]	*>[A,A,B,B,A]	*>[A,A,B,B,A]
*>norep[A,B]	*>norep[A,B]	*>norep[A,B]
*>A	*>A	*>A
*k[]	*k[]	*k[]
*M3/4	*M3/4	*M3/4
*MM120	*MM120	*MM120
!!section:  I
!!measure:  A
!!diceroll: 7
=104	=104	=104
4C	4e	[4cc
4E	4g	16cc]
.	.	16bb
.	.	16aa
.	.	16gg
4r	4r	16ff
.	.	16ee
.	.	16dd
.	.	16cc
!!section:  I
!!measure:  B
!!diceroll: 4
=95	=95	=95
4E	2.G	4cc
4BB	.	16dd
.	.	16ee
.	.	16ff
.	.	16dd
4C	.	4ee
!!section:  I
!!measure:  C
!!diceroll: 7
=27	=27	=27
4F	2.c	8a
.	.	8aa
4A	.	8ff
.	.	8ee
4F	.	8dd
.	.	8cc
!!section:  I
!!measure:  D
!!diceroll: 7
=167	=167	=167
4E	4c	8gg
.	.	8g
4D	4B	8ff
.	.	8f
4C	4c	4e
!!section:  I
!!measure:  E
!!diceroll: 12
=28	=28	=28
4C	4g	8ee
.	.	8cc
4c	4e	8g#
.	.	8a
4r	4r	8b
.	.	8cc
!!section:  I
!!measure:  F
!!diceroll: 3
=46	=46	=46
4G	8g	8b
.	8a	8cc
4GG	8b	8dd
.	8cc	8ee
4G	8a	8ff#
.	8b	8gg
!!section:  I
!!measure:  G
!!diceroll: 7
=118	=118	=118
2C	2e	8r
.	.	8g#
.	.	8a
.	.	8cc
4D	8c	8f#
.	8f#	8a
!!section:  I
!!measure:  H
!!diceroll: 7
=91	=91	=91
8GG	2.g	2.g
8G	.	.
8D	.	.
8BB	.	.
4GG	.	.
*>B	*>B	*>B
!!section:  II
!!measure:  A
!!diceroll: 10
=65	=65	=65
4r	4r	16a
.	.	16b
.	.	16cc#
.	.	16b
4A	4c#	8a
.	.	4aa
4A	4e	.
.	.	8cc#
!!section:  II
!!measure:  B
!!diceroll: 8
=155	=155	=155
4r	4r	4dd
4A	4c#	16ee
.	.	16dd
.	.	16ee
.	.	16gg
4D	4d	4ff
!!section:  II
!!measure:  C
!!diceroll: 8
=57	=57	=57
4B	4d	4f
4r	4r	16ff
.	.	16ee
.	.	16dd
.	.	16cc
4G	4d	4b
!!section:  II
!!measure:  D
!!diceroll: 8
=175	=175	=175
4r	4r	16dd
.	.	16cc
.	.	16b
.	.	16cc
4C	12e	2g
.	12g	.
.	12cc	.
4C	12e	.
.	12g	.
.	12cc	.
!!section:  II
!!measure:  E
!!diceroll: 3
=174	=174	=174
4A	2c	8r
.	.	8cc
4G	.	8cc
.	.	8b
4F	4c	8b
.	.	8a
!!section:  II
!!measure:  F
!!diceroll: 9
=115	=115	=115
4E	8.c	8.g
.	16e	16cc
4C	8.g	8.ee
.	16e	16cc
8r	4ee	4gg
8E	.	.
!!section:  II
!!measure:  G
!!diceroll: 5
=52	=52	=52
4F	8.c	16aa
.	.	16gg
.	.	16aa
.	16d	16ff
4G	4c	4ee
4G	4B	4dd
!!section:  II
!!measure:  H
!!diceroll: 7
=151	=151	=151
4C	2.c	2.cc
8.GG	.	.
16EE	.	.
4CC	.	.
*-	*-	*-
!!!END: 2004/11/01/
